images/img-services-2.svg

<?xml version="1.0" encoding="UTF-8" standalone="no"?>
<svg width="158px" height="141px" viewBox="0 0 158 141" version="1.1" xmlns="http://www.w3.org/2000/svg" xmlns:xlink="http://www.w3.org/1999/xlink">
    <!-- Generator: Sketch 50.2 (55047) - http://www.bohemiancoding.com/sketch -->
    <title>036-job search</title>
    <desc>Created with Sketch.</desc>
    <defs></defs>
    <g id="Page-1" stroke="none" stroke-width="1" fill="none" fill-rule="evenodd" opacity="0.799999952">
        <g id="Landing-Page-MC" transform="translate(-479.000000, -909.000000)" fill-rule="nonzero">
            <g id="Group-5" transform="translate(443.000000, 864.000000)">
                <g id="036-job-search" transform="translate(36.062718, 45.679443)">
                    <path d="M156.271777,12.3652573 L156.271777,107.936431 C156.271777,108.960752 155.444826,109.790941 154.4245,109.790941 L1.84727704,109.790941 C0.826951255,109.790941 0,108.960752 0,107.936431 L0,12.3652573 L81.8650299,8.81533101 L156.271777,12.3652573 Z" id="Shape" fill="#DDEAFB"></path>
                    <path d="M157.073171,12.2861391 L157.073171,107.933345 C157.073171,108.960078 156.227568,109.790941 155.182621,109.790941 L147.456446,109.790941 C148.501393,109.790941 149.346996,108.960078 149.346996,107.933345 L149.346996,10.4181185 L157.073171,12.2861391 Z" id="Shape" fill="#CBE2FF"></path>
                    <path d="M141.559912,1.17316403e-15 L143.449477,6.41114983 L141.559912,12.8222997 L0,12.8222997 L0,1.94002087 C0,0.868468918 0.828259331,0 1.85019908,0 L141.559912,1.17316403e-15 Z" id="Shape" fill="#0473CE"></path>
                    <path d="M156.271777,1.94002087 L156.271777,12.8222997 L141.84669,12.8222997 L141.84669,0 L154.487621,0 C155.473083,0 156.271777,0.868799134 156.271777,1.94002087 Z" id="Shape" fill="#FE646F"></path>
                    <path d="M157.073171,1.93836979 L157.073171,12.8222997 L149.346996,12.8222997 L149.346996,1.93836979 C149.346996,0.868468918 148.501393,0 147.456446,0 L155.182621,0 C156.227568,0 157.073171,0.868468918 157.073171,1.93836979 Z" id="Shape" fill="#FD4755"></path>
                    <path d="M48.8850174,21.6096751 L48.8850174,57.728304 C48.8850174,59.0399806 47.8204684,60.1045296 46.5087918,60.1045296 L10.3901629,60.1045296 C9.07848635,60.1045296 8.01393728,59.0399806 8.01393728,57.728304 L8.01393728,21.6096751 C8.01393728,20.2979985 9.07848635,19.2334495 10.3901629,19.2334495 L46.5087918,19.2334495 C47.8204684,19.2334495 48.8850174,20.2979985 48.8850174,21.6096751 Z" id="Shape" fill="#FFF9DF"></path>
                    <path d="M48.8850174,21.6096751 L48.8850174,57.728304 C48.8850174,59.0399806 47.837863,60.1045296 46.547619,60.1045296 L37.6655052,60.1045296 C38.9557491,60.1045296 40.0029036,59.0399806 40.0029036,57.728304 L40.0029036,21.6096751 C40.0029036,20.2979985 38.9557491,19.2334495 37.6655052,19.2334495 L46.547619,19.2334495 C47.837863,19.2334495 48.8850174,20.2979985 48.8850174,21.6096751 Z" id="Shape" fill="#FFF9DF"></path>
                    <path d="M25.9027019,38.466899 L20.5778138,38.466899 C19.8354324,38.466899 19.2334495,37.8649161 19.2334495,37.1225346 L19.2334495,31.797326 C19.2334495,31.0549446 19.8354324,30.4529617 20.5778138,30.4529617 L25.9030224,30.4529617 C26.6454039,30.4529617 27.2473868,31.0549446 27.2473868,31.797326 L27.2473868,37.1225346 C27.2470662,37.8652366 26.6454039,38.466899 25.9027019,38.466899 Z" id="Shape" fill="#0473CE"></path>
                    <path d="M105.022766,19.2334495 L58.4615543,19.2334495 C57.1559996,19.2334495 56.097561,20.2894961 56.097561,21.5928029 L56.097561,84.1911692 C56.097561,85.494476 57.1559996,86.5505226 58.4615543,86.5505226 L105.022766,86.5505226 C106.328321,86.5505226 107.38676,85.494476 107.38676,84.1911692 L107.38676,21.5928029 C107.38676,20.2898107 106.328321,19.2334495 105.022766,19.2334495 Z" id="Shape" fill="#FFF9DF"></path>
                    <path d="M73.9866461,38.466899 L68.6614375,38.466899 C67.9190561,38.466899 67.3170732,37.8649161 67.3170732,37.1225346 L67.3170732,31.797326 C67.3170732,31.0549446 67.9190561,30.4529617 68.6614375,30.4529617 L73.9866461,30.4529617 C74.7290276,30.4529617 75.3310105,31.0549446 75.3310105,31.797326 L75.3310105,37.1225346 C75.3310105,37.8652366 74.7293481,38.466899 73.9866461,38.466899 Z" id="Shape" fill="#0473CE"></path>
                    <path d="M86.5505226,113.091111 L60.7492097,138.890674 C60.0133283,139.626506 58.8199901,139.626506 58.0841087,138.890361 L51.8408745,132.645355 C51.1053066,131.909524 51.1053066,130.71658 51.8408745,129.981062 L77.6396791,104.181185 L81.8191845,108.360407 L86.5505226,113.091111 Z" id="Shape" fill="#82AEE3"></path>
                    <path d="M86.5505226,112.945371 L60.593058,138.8875 C59.8523986,139.627722 58.6518236,139.627407 57.9114796,138.887185 L53.6933798,134.670316 C54.3936626,134.940175 55.1876319,134.772144 55.7185219,134.241883 L81.7904923,108.188153 L86.5505226,112.945371 Z" id="Shape" fill="#528FD8"></path>
                    <polygon id="Shape" fill="#528FD8" points="82.543554 108.185147 82.543554 108.188153 78.5365854 104.181185"></polygon>
                    <polygon id="Shape" fill="#5A5A5A" points="100.174216 104.051081 97.2442515 106.977895 87.4871545 112.195122 78.5365854 103.244553 83.7538126 93.4874558 86.6837771 90.5574913 95.4201123 99.2938264"></polygon>
                    <polygon id="Shape" fill="#444444" points="99.3728223 104.100947 96.5456511 107.00984 87.1308672 112.195122 82.543554 107.470128 91.9583379 102.284846 94.7855091 99.3728223"></polygon>
                    <path d="M144.534908,102.748238 C135.74229,111.625746 123.883432,115.517604 112.405493,114.417455 C103.449175,113.562136 94.7258153,109.673457 87.8692736,102.748238 C72.2201144,86.9423316 72.2201144,61.3177491 87.8692736,45.5118428 C94.7258153,38.5866237 103.449175,34.6947651 112.405493,33.8394465 C123.883432,32.7424765 135.74229,36.6343352 144.534908,45.5118428 C160.184067,61.3177491 160.184067,86.9423316 144.534908,102.748238 Z" id="Shape" fill="#5A5A5A"></path>
                    <path d="M145.280014,102.748238 C136.44523,111.625746 124.5295,115.517604 112.996516,114.417455 C121.992623,113.562136 130.757817,109.673457 137.650404,102.748238 C153.37145,86.9423316 153.37145,61.3177491 137.650404,45.5118428 C130.757817,38.5866237 121.992623,34.6947651 112.996516,33.8394465 C124.5295,32.7424765 136.44523,36.6343352 145.280014,45.5118428 C161.004223,61.3177491 161.004223,86.9423316 145.280014,102.748238 Z" id="Shape" fill="#444444"></path>
                    <path d="M148.25784,73.7266487 C148.25784,90.9902996 134.264856,104.982578 117.003484,104.982578 C115.775477,104.982578 114.560065,104.910161 113.369843,104.771624 C97.8213835,102.973786 85.7491289,89.7592058 85.7491289,73.7266487 C85.7491289,57.6940916 97.8213835,44.4826601 113.369843,42.6848223 C114.560065,42.5462849 115.775477,42.4738676 117.003484,42.4738676 C134.264856,42.4738676 148.25784,56.4661464 148.25784,73.7266487 Z" id="Shape" fill="#82AEE3"></path>
                    <path d="M148.25784,73.7266487 C148.25784,90.9902996 134.115121,104.982578 116.66904,104.982578 C115.427892,104.982578 114.199474,104.910161 112.996516,104.771624 C128.714537,102.973786 140.915974,89.7623543 140.915974,73.7266487 C140.915974,57.6940916 128.714537,44.4826601 112.996516,42.6848223 C114.199474,42.5462849 115.427892,42.4738676 116.66904,42.4738676 C134.115121,42.4738676 148.25784,56.4661464 148.25784,73.7266487 Z" id="Shape" fill="#528FD8"></path>
                    <path d="M97.4918413,84.1463415 C96.5447642,84.1463415 95.1751353,83.4102857 93.9973436,82.6119507 C92.7806746,81.7871551 92.60254,80.0481789 93.6410744,79.0029861 C94.5078475,78.1307551 95.8959591,78.0939685 96.8063895,78.9194094 L96.8490908,78.9581322 C96.9086815,79.0139576 97.37266,79.3795653 97.5673653,79.2688827 C97.7072599,79.1901463 97.7983985,79.0175072 97.7983985,78.8293789 L97.7983985,67.4345509 C97.7983985,66.1092632 98.8066596,64.9537105 100.114786,64.9140196 C101.468163,64.8727153 102.578397,65.9714746 102.578397,67.3332263 L102.578397,78.8293789 C102.578397,80.7774582 101.547511,82.5674195 99.8875766,83.5009615 C99.0657355,83.9630536 98.2540917,84.1463415 97.4918413,84.1463415 Z" id="Shape" fill="#FFF9DF"></path>
                    <g id="Group" transform="translate(105.783972, 64.912892)" fill="#FFF9DF">
                        <path d="M33.0506614,8.42585366 C33.4591845,7.6382439 33.6939423,6.74485017 33.6939423,5.796 C33.6939423,2.6574216 31.1633864,0.103860627 28.0530835,0.103860627 L23.9398977,0.103860627 C22.6241102,0.103860627 21.5573758,1.17997213 21.5573758,2.50804181 L21.5573758,9.08748432 L21.5573758,9.09806272 L21.5573758,16.7965714 C21.5573758,17.4360836 21.8099231,18.0489895 22.2587902,18.5003345 C22.7054337,18.9487944 23.3099589,19.2007526 23.9398977,19.2007526 L23.9503808,19.2007526 C23.9503808,19.2007526 27.7296958,19.1837631 28.7713344,19.1837631 C32.1866001,19.1837631 34.965256,16.3798467 34.965256,12.9335331 C34.965256,11.1621324 34.2279449,9.56415331 33.0506614,8.42585366 Z M28.0530835,4.91190244 C28.5359412,4.91190244 28.9288985,5.3081115 28.9288985,5.79567944 C28.9288985,6.28324739 28.5359412,6.67945645 28.0530835,6.67945645 C27.7557447,6.67945645 27.2010936,6.68105923 26.5927564,6.68330314 L26.3227372,6.68330314 L26.3227372,4.912223 L28.0530835,4.912223 L28.0530835,4.91190244 Z M28.7713344,14.3754007 C28.3065838,14.3754007 27.2989359,14.3789268 26.3224196,14.382453 L26.3224196,11.4923066 C26.4116847,11.4919861 26.5003145,11.4916655 26.5876737,11.4913449 L28.7713344,11.4913449 C29.559155,11.4913449 30.2002122,12.13823 30.2002122,12.9332125 C30.2002122,13.7281951 29.559155,14.3754007 28.7713344,14.3754007 Z" id="Shape"></path>
                        <path d="M9.51960448,0.10354007 C4.30188153,0.10354007 0.0571805255,4.38682927 0.0571805255,9.65198606 C0.0571805255,14.9171429 4.30188153,19.2004321 9.51960448,19.2004321 C14.7373274,19.2004321 18.9820284,14.9171429 18.9820284,9.65198606 C18.9820284,4.38682927 14.7373274,0.10354007 9.51960448,0.10354007 Z M9.51960448,14.3923902 C6.92932668,14.3923902 4.82222431,12.2658118 4.82222431,9.65230662 C4.82222431,7.03880139 6.92932668,4.912223 9.51960448,4.912223 C12.1098823,4.912223 14.2169847,7.03880139 14.2169847,9.65230662 C14.2169847,12.2658118 12.1098823,14.3923902 9.51960448,14.3923902 Z" id="Shape"></path>
                    </g>
                    <path d="M46.508755,69.7212544 L10.3901997,69.7212544 C9.07786918,69.7212544 8.01393728,68.6451429 8.01393728,67.3170732 C8.01393728,65.9890035 9.07786918,64.912892 10.3901997,64.912892 L46.508755,64.912892 C47.8210855,64.912892 48.8850174,65.9890035 48.8850174,67.3170732 C48.8850174,68.6451429 47.8210855,69.7212544 46.508755,69.7212544 Z" id="Shape" fill="#FFF0AD"></path>
                    <path d="M46.508755,78.5365854 L10.3901997,78.5365854 C9.07786918,78.5365854 8.01393728,77.4604739 8.01393728,76.1324042 C8.01393728,74.8043345 9.07786918,73.728223 10.3901997,73.728223 L46.508755,73.728223 C47.8210855,73.728223 48.8850174,74.8043345 48.8850174,76.1324042 C48.8850174,77.4604739 47.8210855,78.5365854 46.508755,78.5365854 Z" id="Shape" fill="#FFF0AD"></path>
                    <path d="M46.508755,87.3519164 L10.3901997,87.3519164 C9.07786918,87.3519164 8.01393728,86.2758049 8.01393728,84.9477352 C8.01393728,83.6196655 9.07786918,82.543554 10.3901997,82.543554 L46.508755,82.543554 C47.8210855,82.543554 48.8850174,83.6196655 48.8850174,84.9477352 C48.8850174,86.2758049 47.8210855,87.3519164 46.508755,87.3519164 Z" id="Shape" fill="#FFF9DF"></path>
                    <path d="M28.1155308,96.1672474 L10.3513681,96.1672474 C9.06048298,96.1672474 8.01393728,95.0911359 8.01393728,93.7630662 C8.01393728,92.4349965 9.06048298,91.358885 10.3513681,91.358885 L28.1155308,91.358885 C29.406416,91.358885 30.4529617,92.4349965 30.4529617,93.7630662 C30.4529617,95.0911359 29.406416,96.1672474 28.1155308,96.1672474 Z" id="Shape" fill="#FFF9DF"></path>
                </g>
            </g>
        </g>
    </g>
</svg>

<svg xmlns="http://www.w3.org/2000/svg" viewBox="0 0 158 141"><g fill="none" fill-rule="nonzero" stroke="none" stroke-width="1" opacity=".8" transform="translate(-479 -909) translate(443 864) translate(36.063 45.68)"><path fill="#DDEAFB" d="M156.272 12.365v95.571a1.85 1.85 0 0 1-1.847 1.855H1.846A1.85 1.85 0 0 1 0 107.936v-95.57l81.865-3.55 74.407 3.55z"/><path fill="#CBE2FF" d="M157.073 12.286v95.647c0 1.027-.845 1.858-1.89 1.858h-7.727c1.045 0 1.891-.83 1.891-1.858V10.418l7.726 1.868z"/><path fill="#0473CE" d="m141.56 0 1.89 6.411-1.89 6.411H0V1.94C0 .868.828 0 1.85 0h139.71z"/><path fill="#FE646F" d="M156.272 1.94v10.882h-14.425V0h12.64c.986 0 1.785.869 1.785 1.94z"/><path fill="#FD4755" d="M157.073 1.938v10.884h-7.726V1.938c0-1.07-.846-1.938-1.89-1.938h7.726c1.045 0 1.89.868 1.89 1.938z"/><path fill="#FFF9DF" d="M48.885 21.61v36.118a2.377 2.377 0 0 1-2.376 2.377H10.39a2.377 2.377 0 0 1-2.376-2.377V21.61a2.377 2.377 0 0 1 2.376-2.377H46.51a2.377 2.377 0 0 1 2.376 2.377z"/><path fill="#FFF9DF" d="M48.885 21.61v36.118c0 1.312-1.047 2.377-2.337 2.377h-8.882c1.29 0 2.337-1.065 2.337-2.377V21.61c0-1.312-1.047-2.377-2.337-2.377h8.882c1.29 0 2.337 1.065 2.337 2.377z"/><path fill="#0473CE" d="M25.903 38.467h-5.325a1.344 1.344 0 0 1-1.345-1.344v-5.326c0-.742.602-1.344 1.345-1.344h5.325c.742 0 1.344.602 1.344 1.344v5.326c0 .742-.602 1.344-1.344 1.344z"/><path fill="#FFF9DF" d="M105.023 19.233H58.462a2.362 2.362 0 0 0-2.364 2.36V84.19a2.362 2.362 0 0 0 2.364 2.36h46.56a2.362 2.362 0 0 0 2.365-2.36V21.593a2.362 2.362 0 0 0-2.364-2.36z"/><path fill="#0473CE" d="M73.987 38.467H68.66a1.344 1.344 0 0 1-1.344-1.344v-5.326c0-.742.602-1.344 1.344-1.344h5.326c.742 0 1.344.602 1.344 1.344v5.326c0 .742-.602 1.344-1.344 1.344z"/><path fill="#82AEE3" d="m86.55 113.091-25.8 25.8a1.884 1.884 0 0 1-2.666 0l-6.243-6.246a1.884 1.884 0 0 1 0-2.664l25.799-25.8 4.18 4.18 4.73 4.73z"/><path fill="#528FD8" d="m86.55 112.945-25.957 25.942c-.74.74-1.941.74-2.682 0l-4.218-4.217a1.9 1.9 0 0 0 2.026-.428l26.071-26.054 4.76 4.757z"/><path fill="#528FD8" d="M82.543554 108.185147 82.543554 108.188153 78.5365854 104.181185z"/><path fill="#5A5A5A" d="M100.174216 104.051081 97.2442515 106.977895 87.4871545 112.195122 78.5365854 103.244553 83.7538126 93.4874558 86.6837771 90.5574913 95.4201123 99.2938264z"/><path fill="#444" d="M99.3728223 104.100947 96.5456511 107.00984 87.1308672 112.195122 82.543554 107.470128 91.9583379 102.284846 94.7855091 99.3728223z"/><path fill="#5A5A5A" d="M144.535 102.748c-8.793 8.878-20.652 12.77-32.13 11.67-8.956-.856-17.68-4.745-24.536-11.67-15.649-15.806-15.649-41.43 0-57.236 6.857-6.925 15.58-10.817 24.536-11.673 11.478-1.097 23.337 2.795 32.13 11.673 15.65 15.806 15.65 41.43 0 57.236z"/><path fill="#444" d="M145.28 102.748c-8.835 8.878-20.75 12.77-32.283 11.67 8.996-.856 17.76-4.745 24.653-11.67 15.721-15.806 15.721-41.43 0-57.236-6.892-6.925-15.657-10.817-24.653-11.673 11.532-1.097 23.448 2.795 32.283 11.673 15.724 15.806 15.724 41.43 0 57.236z"/><path fill="#82AEE3" d="M148.258 73.727c0 17.263-13.993 31.256-31.255 31.256-1.228 0-2.443-.073-3.633-.211-15.549-1.798-27.62-15.013-27.62-31.045 0-16.033 12.071-29.244 27.62-31.042a31.457 31.457 0 0 1 3.633-.211c17.262 0 31.255 13.992 31.255 31.253z"/><path fill="#528FD8" d="M148.258 73.727c0 17.263-14.143 31.256-31.589 31.256a32.13 32.13 0 0 1-3.672-.211c15.718-1.798 27.919-15.01 27.919-31.045 0-16.033-12.201-29.244-27.92-31.042a32.13 32.13 0 0 1 3.673-.211c17.446 0 31.589 13.992 31.589 31.253z"/><path fill="#FFF9DF" d="M97.492 84.146c-.947 0-2.317-.736-3.495-1.534-1.216-.825-1.394-2.564-.356-3.609a2.286 2.286 0 0 1 3.165-.084l.043.04c.06.055.524.42.718.31a.502.502 0 0 0 .231-.44V67.435c0-1.326 1.009-2.481 2.317-2.521 1.353-.041 2.463 1.057 2.463 2.42v11.495c0 1.948-1.03 3.738-2.69 4.672a4.832 4.832 0 0 1-2.396.645z"/><g fill="#FFF9DF"><path d="M33.05 8.426a5.695 5.695 0 0 0 .644-2.63c0-3.139-2.53-5.692-5.64-5.692H23.94a2.393 2.393 0 0 0-2.383 2.404v14.289c0 .64.253 1.252.702 1.703.446.449 1.051.7 1.68.7h.011s3.78-.016 4.821-.016c3.416 0 6.194-2.804 6.194-6.25 0-1.772-.737-3.37-1.914-4.508zm-4.997-3.514a.88.88 0 0 1 .876.884.88.88 0 0 1-.876.883l-1.46.004h-.27v-1.77h1.73v-.001zm.718 9.463c-.464 0-1.472.004-2.449.007v-2.89h2.449c.788 0 1.43.646 1.43 1.441s-.642 1.442-1.43 1.442zM9.52.104C4.302.104.057 4.387.057 9.652S4.302 19.2 9.52 19.2c5.217 0 9.462-4.283 9.462-9.548S14.737.104 9.52.104zm0 14.288c-2.59 0-4.698-2.126-4.698-4.74 0-2.613 2.107-4.74 4.698-4.74 2.59 0 4.697 2.127 4.697 4.74 0 2.614-2.107 4.74-4.697 4.74z" transform="translate(105.784 64.913)"/></g><path fill="#FFF0AD" d="M46.509 69.721H10.39c-1.312 0-2.376-1.076-2.376-2.404 0-1.328 1.064-2.404 2.376-2.404H46.51c1.312 0 2.376 1.076 2.376 2.404 0 1.328-1.064 2.404-2.376 2.404zM46.509 78.537H10.39c-1.312 0-2.376-1.077-2.376-2.405 0-1.328 1.064-2.404 2.376-2.404H46.51c1.312 0 2.376 1.076 2.376 2.404 0 1.328-1.064 2.405-2.376 2.405z"/><path fill="#FFF9DF" d="M46.509 87.352H10.39c-1.312 0-2.376-1.076-2.376-2.404 0-1.328 1.064-2.404 2.376-2.404H46.51c1.312 0 2.376 1.076 2.376 2.404 0 1.328-1.064 2.404-2.376 2.404zM28.116 96.167H10.35c-1.29 0-2.337-1.076-2.337-2.404 0-1.328 1.046-2.404 2.337-2.404h17.765c1.29 0 2.337 1.076 2.337 2.404 0 1.328-1.047 2.404-2.337 2.404z"/></g></svg>
